src/images/svg/mark.svg

<svg width="18" height="14" viewBox="0 0 18 14" fill="none" xmlns="http://www.w3.org/2000/svg">
<path d="M15.075 0.662248C14.4256 0.952775 13.8032 1.30752 13.2091 1.70317C12.0143 2.48928 10.922 3.42535 9.89741 4.42362C8.87329 5.42435 7.91983 6.49524 7.01829 7.60876C6.7928 7.88721 5.78328 9.12699 5.78328 9.12699L1.5849 2.8357L0 7.22893L5.67753 14C6.22885 12.8838 6.75944 11.782 7.27986 10.8246C7.40918 10.5812 7.5446 10.3521 7.67404 10.1194C7.67404 10.1194 8.34032 8.94816 8.51554 8.65312C9.21621 7.47307 9.97356 6.32359 10.8075 5.23162C11.6424 4.14165 12.5501 3.10108 13.579 2.18632C14.091 1.72593 14.636 1.30025 15.2199 0.929805C15.8026 0.558632 16.4217 0.233606 17.084 0C16.3951 0.13554 15.7229 0.370921 15.075 0.662248Z" fill="#FF6B09"/>
</svg>

<svg width="18" height="14" fill="none" xmlns="http://www.w3.org/2000/svg"><path d="M15.07.66c-.64.3-1.27.65-1.86 1.04-1.2.79-2.29 1.73-3.31 2.72-1.03 1-1.98 2.08-2.88 3.19L5.78 9.13l-4.2-6.3L0 7.24 5.68 14c.55-1.12 1.08-2.22 1.6-3.18l.4-.7.84-1.47c.7-1.18 1.45-2.33 2.29-3.42a21.67 21.67 0 012.77-3.04c.51-.46 1.06-.89 1.64-1.26.58-.37 1.2-.7 1.86-.93a9.3 9.3 0 00-2 .66z" fill="#FF6B09"/></svg>
